_includes/icons/ios-security-pass.svg

<svg fill="#666" height="50" viewBox="0 0 50 50" width="50" xmlns="http://www.w3.org/2000/svg"><path d="m22 1a1.0001 1.0001 0 0 0 -1 1v7h-1-15.0449219c-1.1315353 0-1.9550781.9941016-1.9550781 2.066406v31.867188c0 1.072305.8235428 2.066406 1.9550781 2.066406h40.0898439c1.131535 0 1.955078-.994279 1.955078-2.066406v-31.867188c0-1.0723044-.823543-2.066406-1.955078-2.066406h-15.044922-1v-7a1.0001 1.0001 0 0 0 -1-1zm1 2h4v8h-4v-.832031a1.0001 1.0001 0 0 0 0-.3261721zm2 2a1 1 0 0 0 -1 1 1 1 0 0 0 1 1 1 1 0 0 0 1-1 1 1 0 0 0 -1-1zm-19.9941406 6h12.1816406c-.11356.314892-.1875.648157-.1875 1v.5.5c0 1.64497 1.35503 3 3 3h10c1.64497 0 3-1.35503 3-3v-1c0-.351843-.07394-.685108-.1875-1h12.181641c-.000348.005211.005859.017816.005859.066406v31.867188c0 .047753-.006207.061023-.005859.066406h-39.9882816c.0003478-.005211-.0058594-.017816-.0058594-.066406v-31.867188c0-.04859.0062072-.061195.0058594-.066406zm14.9941406 0h1v1a1.0001 1.0001 0 0 0 1 1h6a1.0001 1.0001 0 0 0 1-1v-1h1c.56503 0 1 .43497 1 1v1c0 .56503-.43497 1-1 1h-10c-.56503 0-1-.43497-1-1v-.5-.5c0-.56503.43497-1 1-1zm-3.087891 7c-2.448893.04217-4.141554 1.101431-4.835937 2.650391-.620328 1.383763-.481668 2.946235-.125 4.455078-.205673.313127-.409303.76038-.386719 1.365234a1.0001 1.0001 0 0 0 0 .001953c.03147.813356.363993 1.445989.705078 1.828125.1855.207826.261339.2187.41211.314453.17855.529447.373802 1.062786.664062 1.425782.208317.260518.430174.379786.628906.55664.01303.436095.026637.840482.003907 1.248047-.09311.178058-.31152.40291-.851563.658203-.581988.275122-1.394627.539466-2.242187.884766-.847561.3453-1.747121.775503-2.4960941 1.49414-.7489732.718641-1.3040864 1.761301-1.3867188 3.052735a1.0001 1.0001 0 0 0 .9980469 1.064453h18a1.0001 1.0001 0 0 0 .998047-1.064453c-.08263-1.291434-.637714-2.334103-1.386719-3.052735-.749005-.718631-1.648441-1.148896-2.496094-1.49414-.847652-.345244-1.659989-.609723-2.242187-.884766-.540972-.255566-.760682-.478253-.853516-.65625-.02285-.409526-.009094-.815598.003907-1.255859.222708-.192726.480099-.324072.677734-.591797.271769-.36815.435798-.880864.591797-1.386719.344456-.224742 1.09375-.787278 1.09375-2.021484 0-.467498-.250703-.737894-.388672-1.080078.267962-.809297.56401-2.063065.419922-3.396485-.0771-.713561-.289901-1.466344-.830078-2.080078-.45982-.522434-1.182789-.817882-1.988282-.910156-.630136-.663709-1.517229-1.125-2.669921-1.125a1.0001 1.0001 0 0 0 -.017579 0zm.023438 2.001953c.796522.0034 1.3153.418654 1.402344.5625a1.0001 1.0001 0 0 0 .855468.482422c.549526 0 .73499.129281.894532.310547.159541.181266.292527.516718.341797.972656.098539.911877-.185471 2.193386-.371094 2.716797a1.0001 1.0001 0 0 0 .255859 1.060547c-.186907-.177127.072266.118255.072266.484375 0 .185581-.378906.513672-.378907.513672a1.0001 1.0001 0 0 0 -.480468.710937c-.05247.346451-.224244.7125-.433594.996094s-.49721.479103-.478516.470703a1.0001 1.0001 0 0 0 -.589843.912109c0 .620436-.078264 1.203844.003906 2.064454a1.0001 1.0001 0 0 0 .066406.273437c.364829.920004 1.156824 1.417871 1.921875 1.779297.765052.361426 1.590902.621104 2.34375.927734.752848.306631 1.41749.65635 1.865234 1.085938.173585.166545.181984.47558.300782.673828h-15.0546878c.118798-.198254.127197-.507274.3007813-.673828.4477455-.429611 1.1124195-.779237 1.8652345-1.085938.752815-.3067 1.578769-.566106 2.34375-.927734.76498-.361628 1.55751-.860947 1.921875-1.78125a1.0001 1.0001 0 0 0 .064453-.271484c.08215-.861414.005859-1.447073.005859-2.066407a1.0001 1.0001 0 0 0 -.558593-.896484c.128613.06325-.261613-.196012-.507813-.503906-.2462-.307895-.443696-.694599-.484375-.972657a1.0001 1.0001 0 0 0 -.582031-.769531s.002602.010579-.080078-.082031c-.08266-.09261-.18569-.224574-.199219-.574219-.0022-.100925.126953-.287109.126953-.287109a1.0001 1.0001 0 0 0 .275391-.994141c-.396106-1.42506-.445073-2.79549-.064453-3.644531.379739-.847083 1.080393-1.430505 3.035156-1.466797zm12.064453 2.998047a1.0001 1.0001 0 1 0 0 2h12a1.0001 1.0001 0 1 0 0-2zm0 5a1.0001 1.0001 0 1 0 0 2h12a1.0001 1.0001 0 1 0 0-2zm0 5a1.0001 1.0001 0 1 0 0 2h12a1.0001 1.0001 0 1 0 0-2z"/></svg>

<svg xmlns="http://www.w3.org/2000/svg" viewBox="0 0 50 50" width="50" height="50" fill="#666"><path style="line-height:normal;text-indent:0;text-align:start;text-decoration-line:none;text-decoration-style:solid;text-decoration-color:#000;text-transform:none;block-progression:tb;isolation:auto;mix-blend-mode:normal" d="M 22 1 A 1.0001 1.0001 0 0 0 21 2 L 21 9 L 20 9 L 4.9550781 9 C 3.8235428 9 3 9.9941016 3 11.066406 L 3 42.933594 C 3 44.005899 3.8235428 45 4.9550781 45 L 45.044922 45 C 46.176457 45 47 44.005721 47 42.933594 L 47 11.066406 C 47 9.9941016 46.176457 9 45.044922 9 L 30 9 L 29 9 L 29 2 A 1.0001 1.0001 0 0 0 28 1 L 22 1 z M 23 3 L 27 3 L 27 11 L 23 11 L 23 10.167969 A 1.0001 1.0001 0 0 0 23 9.8417969 L 23 3 z M 25 5 A 1 1 0 0 0 24 6 A 1 1 0 0 0 25 7 A 1 1 0 0 0 26 6 A 1 1 0 0 0 25 5 z M 5.0058594 11 L 17.1875 11 C 17.07394 11.314892 17 11.648157 17 12 L 17 12.5 L 17 13 C 17 14.64497 18.35503 16 20 16 L 30 16 C 31.64497 16 33 14.64497 33 13 L 33 12 C 33 11.648157 32.92606 11.314892 32.8125 11 L 44.994141 11 C 44.993793 11.005211 45 11.017816 45 11.066406 L 45 42.933594 C 45 42.981347 44.993793 42.994617 44.994141 43 L 5.0058594 43 C 5.0062072 42.994789 5 42.982184 5 42.933594 L 5 11.066406 C 5 11.017816 5.0062072 11.005211 5.0058594 11 z M 20 11 L 21 11 L 21 12 A 1.0001 1.0001 0 0 0 22 13 L 28 13 A 1.0001 1.0001 0 0 0 29 12 L 29 11 L 30 11 C 30.56503 11 31 11.43497 31 12 L 31 13 C 31 13.56503 30.56503 14 30 14 L 20 14 C 19.43497 14 19 13.56503 19 13 L 19 12.5 L 19 12 C 19 11.43497 19.43497 11 20 11 z M 16.912109 18 C 14.463216 18.04217 12.770555 19.101431 12.076172 20.650391 C 11.455844 22.034154 11.594504 23.596626 11.951172 25.105469 C 11.745499 25.418596 11.541869 25.865849 11.564453 26.470703 A 1.0001 1.0001 0 0 0 11.564453 26.472656 C 11.595923 27.286012 11.928446 27.918645 12.269531 28.300781 C 12.455031 28.508607 12.53087 28.519481 12.681641 28.615234 C 12.860191 29.144681 13.055443 29.67802 13.345703 30.041016 C 13.55402 30.301534 13.775877 30.420802 13.974609 30.597656 C 13.987639 31.033751 14.001246 31.438138 13.978516 31.845703 C 13.885406 32.023761 13.666996 32.248613 13.126953 32.503906 C 12.544965 32.779028 11.732326 33.043372 10.884766 33.388672 C 10.037205 33.733972 9.137645 34.164175 8.3886719 34.882812 C 7.6396987 35.601453 7.0845855 36.644113 7.0019531 37.935547 A 1.0001 1.0001 0 0 0 8 39 L 26 39 A 1.0001 1.0001 0 0 0 26.998047 37.935547 C 26.915417 36.644113 26.360333 35.601444 25.611328 34.882812 C 24.862323 34.164181 23.962887 33.733916 23.115234 33.388672 C 22.267582 33.043428 21.455245 32.778949 20.873047 32.503906 C 20.332075 32.24834 20.112365 32.025653 20.019531 31.847656 C 19.996681 31.43813 20.010437 31.032058 20.023438 30.591797 C 20.246146 30.399071 20.503537 30.267725 20.701172 30 C 20.972941 29.63185 21.13697 29.119136 21.292969 28.613281 C 21.637425 28.388539 22.386719 27.826003 22.386719 26.591797 C 22.386719 26.124299 22.136016 25.853903 21.998047 25.511719 C 22.266009 24.702422 22.562057 23.448654 22.417969 22.115234 C 22.340869 21.401673 22.128068 20.64889 21.587891 20.035156 C 21.128071 19.512722 20.405102 19.217274 19.599609 19.125 C 18.969473 18.461291 18.08238 18 16.929688 18 A 1.0001 1.0001 0 0 0 16.912109 18 z M 16.935547 20.001953 C 17.732069 20.005353 18.250847 20.420607 18.337891 20.564453 A 1.0001 1.0001 0 0 0 19.193359 21.046875 C 19.742885 21.046875 19.928349 21.176156 20.087891 21.357422 C 20.247432 21.538688 20.380418 21.87414 20.429688 22.330078 C 20.528227 23.241955 20.244217 24.523464 20.058594 25.046875 A 1.0001 1.0001 0 0 0 20.314453 26.107422 C 20.127546 25.930295 20.386719 26.225677 20.386719 26.591797 C 20.386719 26.777378 20.007813 27.105469 20.007812 27.105469 A 1.0001 1.0001 0 0 0 19.527344 27.816406 C 19.474874 28.162857 19.3031 28.528906 19.09375 28.8125 C 18.8844 29.096094 18.59654 29.291603 18.615234 29.283203 A 1.0001 1.0001 0 0 0 18.025391 30.195312 C 18.025391 30.815748 17.947127 31.399156 18.029297 32.259766 A 1.0001 1.0001 0 0 0 18.095703 32.533203 C 18.460532 33.453207 19.252527 33.951074 20.017578 34.3125 C 20.78263 34.673926 21.60848 34.933604 22.361328 35.240234 C 23.114176 35.546865 23.778818 35.896584 24.226562 36.326172 C 24.400147 36.492717 24.408546 36.801752 24.527344 37 L 9.4726562 37 C 9.5914542 36.801746 9.5998532 36.492726 9.7734375 36.326172 C 10.221183 35.896561 10.885857 35.546935 11.638672 35.240234 C 12.391487 34.933534 13.217441 34.674128 13.982422 34.3125 C 14.747402 33.950872 15.539932 33.451553 15.904297 32.53125 A 1.0001 1.0001 0 0 0 15.96875 32.259766 C 16.0509 31.398352 15.974609 30.812693 15.974609 30.193359 A 1.0001 1.0001 0 0 0 15.416016 29.296875 C 15.544629 29.360125 15.154403 29.100863 14.908203 28.792969 C 14.662003 28.485074 14.464507 28.09837 14.423828 27.820312 A 1.0001 1.0001 0 0 0 13.841797 27.050781 C 13.841797 27.050781 13.844399 27.06136 13.761719 26.96875 C 13.679059 26.87614 13.576029 26.744176 13.5625 26.394531 C 13.5603 26.293606 13.689453 26.107422 13.689453 26.107422 A 1.0001 1.0001 0 0 0 13.964844 25.113281 C 13.568738 23.688221 13.519771 22.317791 13.900391 21.46875 C 14.28013 20.621667 14.980784 20.038245 16.935547 20.001953 z M 29 23 A 1.0001 1.0001 0 1 0 29 25 L 41 25 A 1.0001 1.0001 0 1 0 41 23 L 29 23 z M 29 28 A 1.0001 1.0001 0 1 0 29 30 L 41 30 A 1.0001 1.0001 0 1 0 41 28 L 29 28 z M 29 33 A 1.0001 1.0001 0 1 0 29 35 L 41 35 A 1.0001 1.0001 0 1 0 41 33 L 29 33 z"/></svg>
